X: 25
T:Whither
M:4/4
L:1/8
C:Taz Tarry
S:Copyright B.Tarry, June 1987
R:Reel
K:G
BAGE D2 G2|A2AB AGE2|BAGE D2 G2|A2ABA4|!
BAGE D2 G2|A2AB AGE2|A2AB AGE2|AGA2G4:|!
gdgd e2d2|e2ef ed B2|gdgd e2d2|efed BGBd|!gdgd e2d2|e2ef ed B2|edef edBG
|AFA2 G4:|
%  ABC2Win Version 2.1 10/01/99
% Output from ABC2Win  Version 2.1 f on 22/02/99
